X:2777
T:Cavan Town
R:Hornpipe
C:Ed Reavy
M:4/4
L:1/8
Z:Joe Reavy
N:One of Ed's favorite towns. He wanted to celebrate
N:its memory before he had completed life's work. 
N:May Cavan Town live on wherever this hornpipe is played.
K:D
e|fece dAFA|EFGE CDEG|FDFA ^GABD|cdef gece|dfAd FADF|
EFGE CDEG|FAce gece||d2 dc d3 e|fece dAFA|EFGE CDEG|
FDFA ^GABd|cdef gece|dgAd FADF|EFGE CDEG|FAce gece|
d2 dc d2||fg|afdA FAdf|gecA EAce|fgaf efge|cdef gece|
(3fga dc dfaf|(3efg cA EAce|ba^ge cABc|1d2 dc d2:|
2d2 dc d3||


